src/status/24/printer-warning.svg

<svg width="24" height="24" version="1.1" viewBox="0 0 24 24" xmlns="http://www.w3.org/2000/svg" xmlns:xlink="http://www.w3.org/1999/xlink">
 <defs>
  <filter id="alpha" x="0%" y="0%" width="100%" height="100%">
   <feColorMatrix in="SourceGraphic" values="0 0 0 0 1 0 0 0 0 1 0 0 0 0 1 0 0 0 1 0"/>
  </filter>
  <mask id="mask0">
   <g filter="url(#alpha)">
    <rect width="24" height="24" style="fill-opacity:.6;fill:rgb(0%,0%,0%)"/>
   </g>
  </mask>
  <clipPath id="clip1">
   <rect width="24" height="24"/>
  </clipPath>
  <g id="surface5" clip-path="url(#clip1)">
   <path d="m7 0.0078125h10c2.5 0 2.5-0.2500005 2.5 2.4960935v9.996094c0 2.5 0 2.5-2.5 2.5h-10c-2.5 0-2.5 0-2.5-2.5v-9.996094c0-2.4960935 0-2.4960935 2.5-2.4960935z" style="fill-opacity:.941176;fill-rule:evenodd;fill:rgb(18.039216%,20.392157%,25.098041%)"/>
  </g>
 </defs>
 <g id="surface1">
  <use mask="url(#mask0)" xlink:href="#surface5"/>
  <path d="M 2.398438 6 L 21.601562 6 C 24 6 24 6 24 8.398438 L 24 15.601562 C 24 18 24 18 21.601562 18 L 2.398438 18 C 0 18 0 18 0 15.601562 L 0 8.398438 C 0 6 0 6 2.398438 6 Z M 2.398438 6 " style="fill-rule:evenodd;fill:rgb(18.039216%,20.392157%,25.098041%)"/>
  <path d="m4.5 12h15v12h-15z" style="fill:rgb(74.901962%,38.039216%,41.568628%)"/>
  <path d="m10.5 21.085938h3v2.136718h-3zm0-7.585938h3v6.832031h-3z" style="fill:rgb(18.039216%,20.392157%,25.098041%)"/>
 </g>
</svg>

<svg xmlns="http://www.w3.org/2000/svg" xmlns:xlink="http://www.w3.org/1999/xlink" width="24" height="24" viewBox="0 0 24 24" version="1.1">
<defs>
<filter id="alpha" filterUnits="objectBoundingBox" x="0%" y="0%" width="100%" height="100%">
  <feColorMatrix type="matrix" in="SourceGraphic" values="0 0 0 0 1 0 0 0 0 1 0 0 0 0 1 0 0 0 1 0"/>
</filter>
<mask id="mask0">
  <g filter="url(#alpha)">
<rect x="0" y="0" width="24" height="24" style="fill:rgb(0%,0%,0%);fill-opacity:0.6;stroke:none;"/>
  </g>
</mask>
<clipPath id="clip1">
  <rect x="0" y="0" width="24" height="24"/>
</clipPath>
<g id="surface5" clip-path="url(#clip1)">
<path style=" stroke:none;fill-rule:evenodd;fill:rgb(18.039216%,20.392157%,25.098041%);fill-opacity:0.941176;" d="M 7 0.0078125 L 17 0.0078125 C 19.5 0.0078125 19.5 -0.242188 19.5 2.503906 L 19.5 12.5 C 19.5 15 19.5 15 17 15 L 7 15 C 4.5 15 4.5 15 4.5 12.5 L 4.5 2.503906 C 4.5 0.0078125 4.5 0.0078125 7 0.0078125 Z M 7 0.0078125 "/>
</g>
</defs>
<g id="surface1">
<use xlink:href="#surface5" mask="url(#mask0)"/>
<path style=" stroke:none;fill-rule:evenodd;fill:rgb(18.039216%,20.392157%,25.098041%);fill-opacity:1;" d="M 2.398438 6 L 21.601562 6 C 24 6 24 6 24 8.398438 L 24 15.601562 C 24 18 24 18 21.601562 18 L 2.398438 18 C 0 18 0 18 0 15.601562 L 0 8.398438 C 0 6 0 6 2.398438 6 Z M 2.398438 6 "/>
<path style=" stroke:none;fill-rule:nonzero;fill:rgb(74.901962%,38.039216%,41.568628%);fill-opacity:1;" d="M 4.5 12 L 19.5 12 L 19.5 24 L 4.5 24 Z M 4.5 12 "/>
<path style=" stroke:none;fill-rule:nonzero;fill:rgb(18.039216%,20.392157%,25.098041%);fill-opacity:1;" d="M 10.5 21.085938 L 13.5 21.085938 L 13.5 23.222656 L 10.5 23.222656 Z M 10.5 13.5 L 13.5 13.5 L 13.5 20.332031 L 10.5 20.332031 Z M 10.5 13.5 "/>
</g>
</svg>
